icons/svg/poi_colored/island.svg

<?xml version="1.0" encoding="UTF-8" standalone="no"?>
<!-- Created with Inkscape (http://www.inkscape.org/) -->

<svg
   xmlns:i="http://ns.adobe.com/AdobeIllustrator/10.0/"
   xmlns:dc="http://purl.org/dc/elements/1.1/"
   xmlns:cc="http://creativecommons.org/ns#"
   xmlns:rdf="http://www.w3.org/1999/02/22-rdf-syntax-ns#"
   xmlns:svg="http://www.w3.org/2000/svg"
   xmlns="http://www.w3.org/2000/svg"
   xmlns:sodipodi="http://sodipodi.sourceforge.net/DTD/sodipodi-0.dtd"
   xmlns:inkscape="http://www.inkscape.org/namespaces/inkscape"
   version="1.0"
   width="580"
   height="580"
   id="svg2"
   sodipodi:version="0.32"
   inkscape:version="0.91 r"
   sodipodi:docname="island.svg"
   inkscape:output_extension="org.inkscape.output.svg.inkscape">
  <metadata
     id="metadata10">
    <rdf:RDF>
      <cc:Work
         rdf:about="">
        <dc:format>image/svg+xml</dc:format>
        <dc:type
           rdf:resource="http://purl.org/dc/dcmitype/StillImage" />
        <cc:license
           rdf:resource="http://web.resource.org/cc/PublicDomain" />
        <dc:language>en</dc:language>
        <dc:title />
      </cc:Work>
    </rdf:RDF>
  </metadata>
  <sodipodi:namedview
     inkscape:window-height="1004"
     inkscape:window-width="1920"
     inkscape:pageshadow="2"
     inkscape:pageopacity="0.0"
     guidetolerance="10.0"
     gridtolerance="10.0"
     objecttolerance="10.0"
     borderopacity="1.0"
     bordercolor="#666666"
     pagecolor="#ffffff"
     id="base"
     showgrid="false"
     inkscape:zoom="0.70710678"
     inkscape:cx="630.16985"
     inkscape:cy="431.30317"
     inkscape:window-x="1680"
     inkscape:window-y="0"
     inkscape:current-layer="svg2"
     inkscape:window-maximized="1"
     inkscape:snap-global="false">
    <inkscape:grid
       type="xygrid"
       id="grid3034" />
  </sodipodi:namedview>
  <defs
     id="defs4">
    <inkscape:perspective
       sodipodi:type="inkscape:persp3d"
       inkscape:vp_x="0 : 290 : 1"
       inkscape:vp_y="0 : 1000 : 0"
       inkscape:vp_z="580 : 290 : 1"
       inkscape:persp3d-origin="290 : 193.33333 : 1"
       id="perspective12" />
    <style
       type="text/css"
       id="style6">
   
    .fil0 {fill:#EF7900}
   
  </style>
    <inkscape:perspective
       id="perspective6807"
       inkscape:persp3d-origin="29.116032 : 19.410688 : 1"
       inkscape:vp_z="58.232063 : 29.116032 : 1"
       inkscape:vp_y="0 : 1000 : 0"
       inkscape:vp_x="0 : 29.116032 : 1"
       sodipodi:type="inkscape:persp3d" />
    <inkscape:perspective
       id="perspective6954"
       inkscape:persp3d-origin="290 : 193.33333 : 1"
       inkscape:vp_z="580 : 290 : 1"
       inkscape:vp_y="0 : 1000 : 0"
       inkscape:vp_x="0 : 290 : 1"
       sodipodi:type="inkscape:persp3d" />
    <inkscape:perspective
       id="perspective2541"
       inkscape:persp3d-origin="240 : 160 : 1"
       inkscape:vp_z="480 : 240 : 1"
       inkscape:vp_y="0 : 1000 : 0"
       inkscape:vp_x="0 : 240 : 1"
       sodipodi:type="inkscape:persp3d" />
    <inkscape:perspective
       id="perspective2750"
       inkscape:persp3d-origin="215 : 143.33333 : 1"
       inkscape:vp_z="430 : 215 : 1"
       inkscape:vp_y="0 : 1000 : 0"
       inkscape:vp_x="0 : 215 : 1"
       sodipodi:type="inkscape:persp3d" />
    <inkscape:perspective
       id="perspective3730"
       inkscape:persp3d-origin="88.929146 : 101.19778 : 1"
       inkscape:vp_z="177.85829 : 151.79668 : 1"
       inkscape:vp_y="0 : 1000 : 0"
       inkscape:vp_x="0 : 151.79668 : 1"
       sodipodi:type="inkscape:persp3d" />
  </defs>
  <a
     id="a3072">
    <g
       id="g1327">
      <path
         id="path1329"
         style="fill:#111111;stroke:#eeeeee;stroke-width:3.40799999"
         d="M 66.275,1.768 C 24.94,1.768 1.704,23.139 1.704,66.804 L 1.704,516.927 C 1.704,557.771 22.598,579.156 63.896,579.156 L 515.92,579.156 C 557.227,579.156 578.149,558.84 578.149,516.927 L 578.149,66.804 C 578.149,24.203 557.227,1.768 514.627,1.768 C 514.624,1.768 66.133,1.625 66.275,1.768 z" />
    </g>
  </a>
  <g
     id="g1327-3"
     transform="matrix(1.4887701,0,0,1.4888106,-703.87313,-249.96612)" />
  <path
     inkscape:connector-curvature="0"
     d="m 282.87661,85.69894 c 0,0 -91.70263,-69.090994 -108.03322,38.94223 45.22319,-37.68601 89.1902,-23.86782 96.72741,-7.53721 -31.405,-11.3058 -159.53743,26.38018 -79.14061,130.64479 2.5124,-64.06618 52.7604,-105.52079 90.44642,-108.03319 27.63641,3.76858 89.19019,28.8926 99.2398,109.2894 51.50421,-106.777 -21.35542,-144.463 -74.1158,-138.18199 22.61159,-22.61162 75.37199,-17.5868 91.7026,23.86779 3.76859,-60.297596 -48.99182,-99.239801 -116.8266,-48.99182 z"
     id="path3"
     style="fill:#ffffff;fill-opacity:1" />
  <path
     style="opacity:0.81099997;fill:#ffffff;fill-opacity:1"
     d="m 281.62017,158.64202 -12.5625,7.53711 c 0,0 -10.68245,72.28209 7.92433,134.52197 7.40226,-0.46142 14.87492,-0.67363 22.39453,-0.61719 l 0.002,0 c 1.63098,0.0123 3.2668,0.0385 4.91016,0.0801 6.46201,0.16352 12.8344,0.5853 19.11328,1.22852 -12.90664,-25.32383 -23.95562,-70.3824 -25.45172,-135.2134 z"
     id="path5-3"
     inkscape:connector-curvature="0"
     sodipodi:nodetypes="ccccccccc" />
  <path
     d="m 525.18277,421.24221 c -4.07272,1.12042 -9.33253,0.9448 -16.23195,-0.532 -7.01222,-1.53449 -13.40398,-9.09794 -25.05428,-8.56593 -11.93361,0.41278 -28.78858,11.10289 -45.0744,11.10289 -16.51654,-0.35254 -35.06625,-11.57465 -51.91995,-11.57465 -16.79729,0.11922 -32.06779,11.75414 -48.18564,12.10666 -16.40119,0.0602 -32.74595,-10.86574 -48.8074,-11.1029 -16.28837,-0.41408 -31.72808,9.68635 -46.94217,9.56842 -14.9872,-0.29485 -28.27837,-11.04522 -43.15276,-10.57218 -15.2705,0.58968 -32.01138,12.40151 -46.94216,13.113 -15.0436,0.23459 -28.67449,-10.98754 -41.96439,-11.10548 -13.40272,-0.2346 -28.447585,8.20956 -37.496816,10.10043 -9.049246,1.83317 -14.761576,1.77165 -16.910118,0.47304 l 0,31.30246 c 2.148542,1.2986 7.860872,1.36014 16.910118,-0.47303 9.049231,-1.89215 24.092825,-10.33502 37.496816,-10.10042 13.29118,0.11793 26.92079,11.34005 41.96439,11.10545 14.93078,-0.71147 31.67166,-12.52329 46.94216,-13.11298 14.87439,-0.47303 28.16428,10.27733 43.15276,10.57218 15.21409,0.11794 30.6538,-9.98249 46.94217,-9.56843 16.06145,0.23717 32.40621,11.16317 48.8074,11.10292 16.11785,-0.35255 31.38835,-11.99129 48.18564,-12.10667 16.8537,0 35.40341,11.22212 51.91995,11.57466 16.28582,0 33.14208,-10.69012 45.0744,-11.10292 11.6503,-0.41406 18.04206,7.02633 25.05428,8.62363 6.89942,1.47681 12.15923,1.71396 16.23195,0.47434 l 0,-31.30249 z"
     i:knockout="Off"
     id="path121"
     style="clip-rule:evenodd;opacity:0.82099998;fill:#ffffff;fill-opacity:1;fill-rule:evenodd"
     inkscape:connector-curvature="0" />
  <path
     d="m 523.49927,482.1061 c -4.07272,1.12042 -9.33253,0.9448 -16.23195,-0.532 -7.01222,-1.53449 -13.40398,-9.09794 -25.05428,-8.56593 -11.93361,0.41278 -28.78858,11.10289 -45.0744,11.10289 -16.51654,-0.35254 -35.06625,-11.57465 -51.91995,-11.57465 -16.79729,0.11922 -32.06779,11.75414 -48.18564,12.10666 -16.40119,0.0602 -32.74595,-10.86574 -48.8074,-11.1029 -16.28837,-0.41408 -31.72808,9.68635 -46.94217,9.56842 -14.9872,-0.29485 -28.27837,-11.04522 -43.15276,-10.57218 -15.2705,0.58968 -32.01138,12.40151 -46.94216,13.113 -15.0436,0.23459 -28.67449,-10.98754 -41.96439,-11.10548 -13.40272,-0.2346 -28.44759,8.20956 -37.49682,10.10043 -9.04924,1.83317 -14.76157,1.77165 -16.91012,0.47304 l 0,31.30246 c 2.14855,1.2986 7.86088,1.36014 16.91012,-0.47303 9.04923,-1.89215 24.09283,-10.33502 37.49682,-10.10042 13.29118,0.11793 26.92079,11.34005 41.96439,11.10545 14.93078,-0.71147 31.67166,-12.52329 46.94216,-13.11298 14.87439,-0.47303 28.16428,10.27733 43.15276,10.57218 15.21409,0.11794 30.6538,-9.98249 46.94217,-9.56843 16.06145,0.23717 32.40621,11.16317 48.8074,11.10292 16.11785,-0.35255 31.38835,-11.99129 48.18564,-12.10667 16.8537,0 35.40341,11.22212 51.91995,11.57466 16.28582,0 33.14208,-10.69012 45.0744,-11.10292 11.6503,-0.41406 18.04206,7.02633 25.05428,8.62363 6.89942,1.47681 12.15923,1.71396 16.23195,0.47434 l 0,-31.30249 z"
     i:knockout="Off"
     id="path4736"
     style="clip-rule:evenodd;opacity:0.82099998;fill:#ffffff;fill-opacity:1;fill-rule:evenodd"
     inkscape:connector-curvature="0" />
  <path
     style="fill:#ffffff;fill-opacity:1;fill-rule:evenodd;stroke:none;stroke-width:0.88047463px;stroke-linecap:butt;stroke-linejoin:miter;stroke-opacity:1"
     d="m 299.08502,322.65179 c -73.54876,-0.55213 -145.59062,31.24607 -173.57813,65.78515 6.71239,1.71283 12.01162,4.18679 15.8457,5.72657 5.91004,2.37348 10.06465,3.24432 10.68946,3.33593 0.65759,-0.14436 7.04206,-1.77473 14.27539,-4.60546 7.74639,-3.03153 18.49561,-7.8186 32.44922,-8.35743 a 8.0536713,8.0536713 0 0 1 0.0391,-0.002 c 0.0481,-0.002 0.0965,-0.003 0.14453,-0.004 14.0544,-0.44696 24.99291,4.09165 31.99414,6.73633 6.82222,2.5771 11.71211,3.73219 12.4043,3.78125 1.02181,-0.0299 6.96941,-1.21646 14.52148,-3.59765 7.75158,-2.4441 18.83203,-6.2369 32.58985,-5.91602 13.76747,0.23405 24.62846,4.44268 32.42382,7.07812 7.61863,2.57572 13.6471,3.8999 15.4668,3.95118 1.31527,-0.0813 7.09333,-1.52031 14.6875,-4.36133 7.84757,-2.93582 19.21589,-7.58296 33.67188,-7.68555 a 8.0536713,8.0536713 0 0 1 0.0273,0 c 0.0542,-1.9e-4 0.10988,-1.3e-4 0.16406,0 14.23881,0 25.74113,4.15698 34.44531,6.97266 8.46341,2.73779 15.79926,4.43505 17.75977,4.53906 1.92658,-0.0606 8.01704,-1.38366 14.86914,-3.79492 3.67638,-1.29372 8.06624,-3.16849 13.37695,-4.68945 -34.67636,-28.00836 -95.3933,-63.08836 -163.83984,-64.82032 -1.47648,-0.0374 -2.95211,-0.0612 -4.42773,-0.0723 z"
     id="path4167"
     inkscape:connector-curvature="0" />
</svg>

<svg width="580" height="580" viewBox="0 0 580 580" fill="none" xmlns="http://www.w3.org/2000/svg">
<path d="M282.877 85.699C282.877 85.699 191.174 16.608 174.843 124.641C220.067 86.9552 264.034 100.773 271.571 117.104C240.166 105.798 112.033 143.484 192.43 247.749C194.943 183.683 245.191 142.228 282.877 139.716C310.513 143.484 372.067 168.608 382.116 249.005C433.621 142.228 360.761 104.542 308.001 110.823C330.612 88.2114 383.373 93.2362 399.703 134.691C403.472 74.3932 350.711 35.451 282.877 85.699V85.699Z" fill="white"/>
<path opacity="0.811" d="M281.62 158.642L269.058 166.179C269.058 166.179 258.375 238.461 276.982 300.701C284.384 300.24 291.857 300.028 299.377 300.084H299.379C301.01 300.096 302.645 300.122 304.289 300.164C310.751 300.328 317.123 300.749 323.402 301.393C310.495 276.069 299.446 231.01 297.95 166.179L281.62 158.642Z" fill="white"/>
<path opacity="0.821" fill-rule="evenodd" clip-rule="evenodd" d="M525.183 421.242C521.11 422.363 515.85 422.187 508.951 420.71C501.939 419.176 495.547 411.612 483.897 412.144C471.963 412.557 455.108 423.247 438.822 423.247C422.306 422.894 403.756 411.672 386.902 411.672C370.105 411.792 354.834 423.427 338.717 423.779C322.315 423.839 305.971 412.913 289.909 412.676C273.621 412.262 258.181 422.362 242.967 422.245C227.98 421.95 214.689 411.199 199.814 411.672C184.544 412.262 167.803 424.074 152.872 424.785C137.828 425.02 124.198 413.798 110.908 413.68C97.5049 413.445 82.4601 421.889 73.4108 423.78C64.3616 425.613 58.6493 425.552 56.5007 424.253V455.556C58.6493 456.854 64.3616 456.916 73.4108 455.083C82.4601 453.191 97.5037 444.748 110.908 444.982C124.199 445.1 137.828 456.322 152.872 456.088C167.803 455.376 184.544 443.565 199.814 442.975C214.689 442.502 227.979 453.252 242.967 453.547C258.181 453.665 273.621 443.565 289.909 443.979C305.971 444.216 322.315 455.142 338.717 455.082C354.834 454.729 370.105 443.09 386.902 442.975C403.756 442.975 422.306 454.197 438.822 454.55C455.108 454.55 471.964 443.859 483.897 443.447C495.547 443.033 501.939 450.473 508.951 452.07C515.85 453.547 521.11 453.784 525.183 452.545V421.242V421.242Z" fill="white"/>
<path opacity="0.821" fill-rule="evenodd" clip-rule="evenodd" d="M523.499 482.106C519.427 483.227 514.167 483.051 507.267 481.574C500.255 480.04 493.863 472.476 482.213 473.008C470.279 473.421 453.424 484.111 437.139 484.111C420.622 483.759 402.072 472.536 385.219 472.536C368.421 472.656 353.151 484.291 337.033 484.643C320.632 484.703 304.287 473.777 288.226 473.54C271.937 473.126 256.498 483.227 241.284 483.109C226.296 482.814 213.005 472.063 198.131 472.536C182.86 473.126 166.119 484.938 151.189 485.649C136.145 485.884 122.514 474.662 109.224 474.544C95.8215 474.309 80.7766 482.753 71.7274 484.644C62.6781 486.478 56.9658 486.416 54.8173 485.117V516.42C56.9658 517.718 62.6781 517.78 71.7274 515.947C80.7766 514.055 95.8202 505.612 109.224 505.846C122.515 505.964 136.145 517.186 151.189 516.952C166.119 516.24 182.86 504.429 198.131 503.839C213.005 503.366 226.295 514.116 241.284 514.411C256.498 514.529 271.937 504.429 288.226 504.843C304.287 505.08 320.632 516.006 337.033 515.946C353.151 515.593 368.421 503.954 385.219 503.839C402.072 503.839 420.622 515.061 437.139 515.414C453.424 515.414 470.281 504.723 482.213 504.311C493.863 503.897 500.255 511.337 507.267 512.934C514.167 514.411 519.427 514.648 523.499 513.409V482.106V482.106Z" fill="white"/>
<path fill-rule="evenodd" clip-rule="evenodd" d="M299.085 322.652C225.536 322.1 153.494 353.898 125.507 388.437C132.219 390.15 137.519 392.624 141.353 394.164C147.263 396.537 151.417 397.408 152.042 397.5C152.7 397.355 159.084 395.725 166.317 392.894C174.064 389.863 184.813 385.075 198.767 384.537C198.78 384.536 198.793 384.535 198.806 384.535C198.854 384.533 198.902 384.532 198.95 384.531C213.005 384.084 223.943 388.622 230.944 391.267C237.767 393.844 242.657 394.999 243.349 395.048C244.371 395.018 250.318 393.832 257.87 391.451C265.622 389.006 276.702 385.214 290.46 385.535C304.228 385.769 315.089 389.977 322.884 392.613C330.503 395.188 336.531 396.513 338.351 396.564C339.666 396.483 345.444 395.044 353.038 392.202C360.886 389.267 372.254 384.62 386.71 384.517C386.719 384.517 386.728 384.517 386.737 384.517C386.792 384.517 386.847 384.517 386.901 384.517C401.14 384.517 412.643 388.674 421.347 391.49C429.81 394.227 437.146 395.925 439.107 396.029C441.033 395.968 447.124 394.645 453.976 392.234C457.652 390.94 462.042 389.065 467.353 387.544C432.676 359.536 371.959 324.456 303.513 322.724C302.036 322.687 300.561 322.663 299.085 322.652V322.652Z" fill="white"/>
</svg>
